X: 39948
T: Thornhill Road
R: slip jig
M: 9/8
K: Gmajor
|:E2G c2d c2B|(G3G2) A GFE|F3 D3 DEG|c2 B2 GE F2B|
E2G c2d c2B|(G3G2) A GFE|F3 G3 B3|1 B8 G:|2 B7 z2||
|:E3 c3 ABG|E3 c3 BAG|F3 d3 d2c|B2A A2G F2E|
E3 c3 B2G|E3 c3 BB/A/G|B3 B2A c3|B A8:|

